!!!OTL: 横須賀ストーリー
**kern	**kern	**kern	**kern	**kern
*part5	*part4	*part3	*part2	*part1
*staff5	*staff4	*staff3	*staff2	*staff1
*I"Bass	*I"3rd	*I"2nd	*I"1st	*I"Lead
*I'B	*I'3	*I'2	*I'1	*I'L
*clefF4	*clefGv2	*clefG2	*clefG2	*clefGv2
*k[f#c#g#d#]	*k[f#c#g#d#]	*k[f#c#g#d#]	*k[f#c#g#d#]	*k[f#c#g#d#]
*M4/4	*M4/4	*M4/4	*M4/4	*M4/4
*MM136	*MM136	*MM136	*MM136	*MM136
=1	=1	=1	=1	=1
1r	8A	8B	8e	1r
.	8r	8r	8r	.
.	8AL	8BL	8eL	.
.	8AJ	8BJ	8eJ	.
.	8r	8r	8r	.
.	8A	8B	8e	.
.	8r	8r	8r	.
.	8A	8B	8e	.
=2	=2	=2	=2	=2
1r	8r	8r	8r	1r
.	8A	8B	8e	.
.	8r	8r	8r	.
.	8B	8d#	8f#	.
.	8r	8r	8r	.
.	8B	8d#	8f#	.
.	8r	8r	8r	.
.	8c#	8e	8g#	.
=3	=3	=3	=3	=3
1r	8r	8r	8r	1r
.	8c#L	8eL	8g#L	.
.	8c#J	8eJ	8g#J	.
.	8r	8r	8r	.
.	8c#	8e	8g#	.
.	8r	8r	8r	.
.	8c#L	8eL	8g#L	.
.	8c#J	8eJ	8g#J	.
=4	=4	=4	=4	=4
1r	8r	8r	8r	1r
.	8c#	8e	8g#	.
.	8r	8r	8r	.
.	8B	8g#	8b	.
.	8r	8r	8r	.
.	8B	8g#	8b	.
.	8r	8r	8r	.
.	8B	8g#	8b	.
=5	=5	=5	=5	=5
1r	8A	8B	8e	1r
.	8r	8r	8r	.
.	8AL	8BL	8eL	.
.	8AJ	8BJ	8eJ	.
.	8r	8r	8r	.
.	8A	8B	8e	.
.	8r	8r	8r	.
.	8A	8B	8e	.
=6	=6	=6	=6	=6
1r	8r	8r	8r	1r
.	8A	8B	8e	.
.	8r	8r	8r	.
.	8B	8d#	8f#	.
.	8r	8r	8r	.
.	8B	8d#	8f#	.
.	8r	8r	8r	.
.	8c#	8e	8g#	.
=7	=7	=7	=7	=7
1r	8r	8r	8r	1r
.	8c#L	8eL	8g#L	.
.	8c#J	8eJ	8g#J	.
.	8r	8r	8r	.
.	8c#	8e	8g#	.
.	8r	8r	8r	.
.	8c#L	8eL	8g#L	.
.	8c#J	8eJ	8g#J	.
=8	=8	=8	=8	=8
1r	8r	8r	8r	1r
.	8c#	8e	8g#	.
.	8r	8r	8r	.
.	8B	8g#	8b	.
.	8r	8r	8r	.
.	8B	8g#	8b	.
.	8r	8r	8r	.
.	8B	8g#	8b	.
=9	=9	=9	=9	=9
1r	8A	8B	8e	4E
.	8r	8r	8r	.
.	8AL	8BL	8eL	8EL
.	8AJ	8BJ	8eJ	8EJ
.	8r	8r	8r	8EL
.	8A	8B	8e	8F#J
.	8r	8r	8r	[4F#
.	8A	8B	8e	.
=10	=10	=10	=10	=10
1r	8r	8r	8r	2F#]
.	8A	8B	8e	.
.	8r	8r	8r	.
.	8B	8d#	8f#	.
.	8r	8r	8r	8EL
.	8B	8d#	8f#	8F#J
.	8r	8r	8r	4F#
.	8c#	8e	8g#	.
=11	=11	=11	=11	=11
1r	8r	8r	8r	4F#
.	8c#L	8eL	8g#L	.
.	8c#J	8eJ	8g#J	8F#L
.	8r	8r	8r	8EJ
.	8c#	8e	8g#	8F#L
.	8r	8r	8r	8G#
.	8c#L	8eL	8g#L	8A
.	8c#J	8eJ	8g#J	[8G#J
=12	=12	=12	=12	=12
1r	8r	8r	8r	2G#]
.	8c#	8e	8g#	.
.	8r	8r	8r	.
.	8B	8g#	8b	.
.	8r	8r	8r	8EL
.	8B	8g#	8b	8EJ
.	8r	8r	8r	[4B
.	8B	8g#	8b	.
=13	=13	=13	=13	=13
1r	8A	8B	8e	4B]
.	8r	8r	8r	.
.	8AL	8BL	8eL	8A
.	8AJ	8BJ	8eJ	4.G#
.	8r	8r	8r	.
.	8A	8B	8e	.
.	8r	8r	8r	8AL
.	8A	8B	8e	[8G#J
=14	=14	=14	=14	=14
1r	8r	8r	8r	4G#]
.	8A	8B	8e	.
.	8r	8r	8r	8F#
.	8B	8d#	8f#	4.E
.	8r	8r	8r	.
.	8B	8d#	8f#	.
.	8r	8r	8r	8EL
.	8c#	8e	8g#	[8BJ
=15	=15	=15	=15	=15
1r	8r	8r	8r	4B]
.	8c#L	8eL	8g#L	.
.	8c#J	8eJ	8g#J	8A
.	8r	8r	8r	4.G#
.	8c#	8e	8g#	.
.	8r	8r	8r	.
.	8c#L	8eL	8g#L	8AL
.	8c#J	8eJ	8g#J	8G#J
=16	=16	=16	=16	=16
1r	8r	8r	8r	8r
.	8c#	8e	8g#	4F#
.	8r	8r	8r	.
.	8B	8g#	8b	8r
.	8r	8r	8r	2r
.	8B	8g#	8b	.
.	8r	8r	8r	.
.	8B	8g#	8b	.
=17	=17	=17	=17	=17
1r	8A	8B	8e	4E
.	8r	8r	8r	.
.	8AL	8BL	8eL	8EL
.	8AJ	8BJ	8eJ	8EJ
.	8r	8r	8r	8EL
.	8A	8B	8e	8F#J
.	8r	8r	8r	[4F#
.	8A	8B	8e	.
=18	=18	=18	=18	=18
1r	8r	8r	8r	2F#]
.	8A	8B	8e	.
.	8r	8r	8r	.
.	8B	8d#	8f#	.
.	8r	8r	8r	8EL
.	8B	8d#	8f#	8F#J
.	8r	8r	8r	4F#
.	8c#	8e	8g#	.
=19	=19	=19	=19	=19
1r	8r	8r	8r	4F#
.	8c#L	8eL	8g#L	.
.	8c#J	8eJ	8g#J	8F#L
.	8r	8r	8r	8EJ
.	8c#	8e	8g#	8F#L
.	8r	8r	8r	8G#
.	8c#L	8eL	8g#L	8A
.	8c#J	8eJ	8g#J	[8G#J
=20	=20	=20	=20	=20
1r	8r	8r	8r	2G#]
.	8c#	8e	8g#	.
.	8r	8r	8r	.
.	8B	8g#	8b	.
.	8r	8r	8r	8EL
.	8B	8g#	8b	8EJ
.	8r	8r	8r	[4B
.	8B	8g#	8b	.
=21	=21	=21	=21	=21
1r	8A	8B	8e	4B]
.	8r	8r	8r	.
.	8AL	8BL	8eL	8A
.	8AJ	8BJ	8eJ	4.G#
.	8r	8r	8r	.
.	8A	8B	8e	.
.	8r	8r	8r	8AL
.	8A	8B	8e	8G#J
=22	=22	=22	=22	=22
1r	8r	8r	8r	8G#
.	8A	8B	8e	4F#
.	8r	8r	8r	.
.	8B	8d#	8f#	8r
.	8r	8r	8r	8EL
.	8B	8d#	8f#	8E
.	8r	8r	8r	8F#
.	8c#	8e	8g#	[8G#J
=23	=23	=23	=23	=23
1r	8r	8r	8r	4G#]
.	8c#L	8eL	8g#L	.
.	8c#J	8eJ	8g#J	8F#
.	8r	8r	8r	4.E
.	8c#	8e	8g#	.
.	8r	8r	8r	.
.	8c#L	8eL	8g#L	8F#L
.	8c#J	8eJ	8g#J	8C#J
=24	=24	=24	=24	=24
1r	8r	8r	8r	8r
.	8c#	8e	8g#	4E
.	8r	8r	8r	.
.	8B	8g#	8b	8E
.	8r	8r	8r	8F#L
.	8B	8g#	8b	8EJ
.	8r	8r	8r	4E
.	8B	8g#	8b	.
=25	=25	=25	=25	=25
1r	8A	8B	8e	1r
.	8r	8r	8r	.
.	8AL	8BL	8eL	.
.	8AJ	8BJ	8eJ	.
.	8r	8r	8r	.
.	8A	8B	8e	.
.	8r	8r	8r	.
.	8A	8B	8e	.
=26	=26	=26	=26	=26
1r	8r	8r	8r	1r
.	8A	8B	8e	.
.	8r	8r	8r	.
.	8B	8d#	8f#	.
.	8r	8r	8r	.
.	8B	8d#L	4f#	.
.	16d#LL	8eJ	.	.
.	16BJJ	.	.	.
.	8r	8r	8r	.
=27	=27	=27	=27	=27
4AA	4G#	8B	8e	4E
.	.	8r	8r	.
4AA	8G#L	8BL	8eL	8EL
.	8G#J	8BJ	8eJ	8EJ
4AA	8G#L	8r	8r	8EL
.	8AJ	8B	8e	8F#J
4AA	[4A	8r	8r	[4F#
.	.	8B	8e	.
=28	=28	=28	=28	=28
4AA	2A]	8r	8r	2F#]
.	.	8B	8e	.
4AA	.	8r	8r	.
.	.	8d#	8f#	.
4BB	8G#L	8r	8r	8EL
.	8AJ	8d#	8f#	8F#J
4BB	4A	8r	8r	4F#
.	.	8e	8g#	.
=29	=29	=29	=29	=29
4C#	4A	8r	8r	4F#
.	.	8eL	8g#L	.
4C#	8AL	8eJ	8g#J	8F#L
.	8G#J	8r	8r	8EJ
4C#	8AL	8e	8g#	8F#L
.	8B	8r	8r	8G#
4C#	8c#	8eL	8g#L	8A
.	[8BJ	8eJ	8g#J	[8G#J
=30	=30	=30	=30	=30
4C#	2B]	8r	8r	2G#]
.	.	8e	8g#	.
4C#	.	8r	8r	.
.	.	8g#	8b	.
4BB	8G#L	8r	8r	8EL
.	8G#J	8g#	8b	8EJ
4BB	[4d#	8r	8r	[4B
.	.	8g#	8b	.
=31	=31	=31	=31	=31
4AA	4d#]	8B	8e	4B]
.	.	8r	8r	.
4AA	8c#	8BL	8eL	8A
.	4.B	8BJ	8eJ	4.G#
4AA	.	8r	8r	.
.	.	8B	8e	.
4AA	8c#L	8r	8r	8AL
.	[8BJ	8B	8e	[8G#J
=32	=32	=32	=32	=32
4AA	4B]	8r	8r	4G#]
.	.	8B	8e	.
4AA	8A	8r	8r	8F#
.	4.G#	8d#	8f#	4.E
4BB	.	8r	8r	.
.	.	8d#	8f#	.
4BB	8G#L	8r	8r	8EL
.	[8d#J	8e	8g#	[8BJ
=33	=33	=33	=33	=33
4C#	4d#]	8r	8r	4B]
.	.	8eL	8g#L	.
4C#	8c#	8eJ	8g#J	8A
.	4.B	8r	8r	4.G#
4C#	.	8e	8g#	.
.	.	8r	8r	.
4C#	8c#L	8eL	8g#L	8AL
.	8BJ	8eJ	8g#J	8G#J
=34	=34	=34	=34	=34
4C#	8r	8r	8r	8r
.	4A	8e	8g#	4F#
4C#	.	8r	8r	.
.	8r	8g#	8b	8r
4BB	2r	8r	8r	2r
.	.	8g#	8b	.
4BB	.	8r	8r	.
.	.	8g#	8b	.
=35	=35	=35	=35	=35
4AA	4G#	8B	8e	4E
.	.	8r	8r	.
4AA	8G#L	8BL	8eL	8EL
.	8G#J	8BJ	8eJ	8EJ
4AA	8G#L	8r	8r	8EL
.	8AJ	8B	8e	8F#J
4AA	[4A	8r	8r	[4F#
.	.	8B	8e	.
=36	=36	=36	=36	=36
4AA	2A]	8r	8r	2F#]
.	.	8B	8e	.
4AA	.	8r	8r	.
.	.	8d#	8f#	.
4BB	8G#L	8r	8r	8EL
.	8AJ	8d#	8f#	8F#J
4BB	4A	8r	8r	4F#
.	.	8e	8g#	.
=37	=37	=37	=37	=37
4C#	4A	8r	8r	4F#
.	.	8eL	8g#L	.
4C#	8AL	8eJ	8g#J	8F#L
.	8G#J	8r	8r	8EJ
4C#	8AL	8e	8g#	8F#L
.	8B	8r	8r	8G#
4C#	8c#	8eL	8g#L	8A
.	[8BJ	8eJ	8g#J	[8G#J
=38	=38	=38	=38	=38
4C#	2B]	8r	8r	2G#]
.	.	8e	8g#	.
4C#	.	8r	8r	.
.	.	8g#	8b	.
4BB	8G#L	8r	8r	8EL
.	8G#J	8g#	8b	8EJ
4BB	[4d#	8r	8r	[4B
.	.	8g#	8b	.
=39	=39	=39	=39	=39
4AA	4d#]	8B	8e	4B]
.	.	8r	8r	.
4AA	8c#	8BL	8eL	8A
.	4.B	8BJ	8eJ	4.G#
4AA	.	8r	8r	.
.	.	8B	8e	.
4AA	8c#L	8r	8r	8AL
.	8BJ	8B	8e	8G#J
=40	=40	=40	=40	=40
4AA	8B	8r	8r	8G#
.	4A	8B	8e	4F#
4AA	.	8r	8r	.
.	8r	8d#	8f#	8r
4BB	8G#L	8r	8r	8EL
.	8G#	8d#	8f#	8E
4BB	8A	8r	8r	8F#
.	[8BJ	8e	8g#	[8G#J
=41	=41	=41	=41	=41
4C#	4B]	8r	8r	4G#]
.	.	8eL	8g#L	.
4C#	8A	8eJ	8g#J	8F#
.	4.G#	8r	8r	4.E
4C#	.	8e	8g#	.
.	.	8r	8r	.
4C#	8AL	8eL	8g#L	8F#L
.	8EJ	8eJ	8g#J	8C#J
=42	=42	=42	=42	=42
4C#	8r	8r	8r	8r
.	4G#	8e	8g#	4E
4C#	.	8r	8r	.
.	8G#	8g#	8b	8E
4BB	8AL	8r	8r	8F#L
.	8G#J	8g#	8b	8EJ
4BB	4G#	8r	8r	4E
.	.	8g#	8b	.
=43	=43	=43	=43	=43
1AA	8A	8B	4e	4B
.	8r	8r	.	.
.	8AL	8BL	4g#	4g#
.	8AJ	8BJ	.	.
.	8r	8r	4e	4B
.	8A	8B	.	.
.	8r	8r	[4e	[4B
.	8A	8B	.	.
=44	=44	=44	=44	=44
1BB	8r	8r	4e]	4B]
.	8A	8B	.	.
.	8r	8r	4g#	4g#
.	8B	8d#	.	.
.	8r	8r	4f#	4B
.	8B	8d#	.	.
.	8r	8r	[4f#	[4B
.	8c#	8e	.	.
=45	=45	=45	=45	=45
1GG#	8r	8r	4f#]	4B]
.	8c#L	8eL	.	.
.	8c#J	8eJ	4g#	4g#
.	8r	8r	.	.
.	8c#	8e	4d#	4B
.	8r	8r	.	.
.	8c#L	8eL	4d#	4B
.	8c#J	8eJ	.	.
=46	=46	=46	=46	=46
1C#	8r	8r	4e	4B
.	8c#	8e	.	.
.	8r	8r	4e	4A
.	8B	8g#	.	.
.	8r	8r	4e	4G#
.	8B	8g#	.	.
.	8r	8r	4f#	4A
.	8B	8g#	.	.
=47	=47	=47	=47	=47
1AA	8A	8B	4e	4B
.	8r	8r	.	.
.	8AL	8BL	4g#	4g#
.	8AJ	8BJ	.	.
.	8r	8r	4e	4B
.	8A	8B	.	.
.	8r	8r	[4e	[4B
.	8A	8B	.	.
=48	=48	=48	=48	=48
1BB	8r	8r	4e]	4B]
.	8A	8B	.	.
.	8r	8r	4g#	4g#
.	8B	8d#	.	.
.	8r	8r	4f#	4f#
.	8B	8d#	.	.
.	8r	8r	4g#	4g#
.	8c#	8e	.	.
=49	=49	=49	=49	=49
1C#	8r	8r	8r	1r
.	8c#L	8eL	8g#L	.
.	8c#J	8eJ	8g#J	.
.	8r	8r	8r	.
.	8c#	8e	8g#	.
.	8r	8r	8r	.
.	8c#L	8eL	8g#L	.
.	8c#J	8eJ	8g#J	.
=50	=50	=50	=50	=50
4.C#	8r	8r	8r	1r
.	8c#	8e	8g#	.
.	8r	8r	8r	.
[8E	8B	8g#	8b	.
2E]	8r	8r	8r	.
.	8B	8g#	8b	.
.	8r	8r	8r	.
.	8B	8g#	8b	.
=51	=51	=51	=51	=51
[1FF#	8A	8B	4e	4B
.	8r	8r	.	.
.	8AL	8BL	4g#	4g#
.	8AJ	8BJ	.	.
.	8r	8r	4e	4B
.	8A	8B	.	.
.	8r	8r	[4e	[4B
.	8A	8B	.	.
=52	=52	=52	=52	=52
2.FF#]	8r	8r	4e]	4B]
.	8A	8B	.	.
.	8r	8r	4g#	4g#
.	8B	8d#	.	.
.	8r	8r	4f#	4B
.	8B	8d#	.	.
8FF#L	8r	8r	[4f#	[4B
8GGnJ	8c#	8e	.	.
=53	=53	=53	=53	=53
1GG#	8r	8r	4f#]	4B]
.	8c#L	8eL	.	.
.	8c#J	8eJ	4g#	4g#
.	8r	8r	.	.
.	8c#	8e	4d#	4B
.	8r	8r	.	.
.	8c#L	8eL	4d#	4B
.	8c#J	8eJ	.	.
=54	=54	=54	=54	=54
[1AA	8r	8r	4e	4B
.	8c#	8e	.	.
.	8r	8r	4e	4A
.	8B	8g#	.	.
.	8r	8r	4e	4G#
.	8B	8g#	.	.
.	8r	8r	4f#	4A
.	8B	8g#	.	.
=55	=55	=55	=55	=55
2.AA]	8A	8B	4e	4B
.	8r	8r	.	.
.	8AL	8BL	4g#	4g#
.	8AJ	8BJ	.	.
.	8r	8r	4e	4B
.	8A	8B	.	.
8r	8r	8r	[4e	[4B
8EE	8A	8B	.	.
=56	=56	=56	=56	=56
4GG#	8r	8r	4e]	4B]
.	8A	8B	.	.
8GG#L	8r	8r	4g#	4g#
[8GG#J	8B	8d#	.	.
8GG#]	8r	8r	4f#	4f#
4GG#	8B	8d#	.	.
.	8r	8r	[4e	[4e
8GG#	8c#	8e	.	.
=57	=57	=57	=57	=57
2AA	2A	2c#	2e]	2e]
4r	4r	4r	4r	4r
8r	8r	8r	8r	8r
[8GG#	[8B	[8d#	[8g#	[8g#
=58	=58	=58	=58	=58
1GG#]	1B]	1d#]	1g#]	1g#]
=59	=59	=59	=59	=59
1r	1r	1r	1r	4r
.	.	.	.	4r
.	.	.	.	4r
.	.	.	.	8r
.	.	.	.	8f#
=60	=60	=60	=60	=60
8AA	8G#	8c#	8e	8f#
8r	8r	8r	8r	4g#
8AAL	8G#L	8c#L	8eL	.
8AAJ	8G#J	8c#J	8eJ	8r
8r	8r	8r	8r	2r
8AA	8G#	8c#	8e	.
8r	8r	8r	8r	.
8AA	8G#	8c#	8e	.
=61	=61	=61	=61	=61
8r	8r	8r	8r	4r
8AA	8G#	8c#	8e	.
8r	8r	8r	8r	4r
8BB	8B	8d#	8f#	.
8r	8r	8r	8r	4r
8BB	8B	8d#	8f#	.
8r	8r	8r	8r	8r
8C#	8c#	8e	8g#	8f#
=62	=62	=62	=62	=62
8r	8r	8r	8r	8f#
8C#L	8c#L	8eL	8g#L	4g#
8C#J	8c#J	8eJ	8g#J	.
8r	8r	8r	8r	8r
8C#	8c#	8e	8g#	2r
8r	8r	8r	8r	.
8C#L	8EL	8c#L	8eL	.
8C#J	[8EJ	[8c#J	[8bJ	.
=63	=63	=63	=63	=63
8r	8EL]	8c#L]	8bL]	4r
8C#	8A	8c#	8a	.
8r	8G#	8c#	8g#	4r
8E	8AJ	8c#J	8aJ	.
8r	4.G#	4.c#	4.g#	4r
8E	.	.	.	.
8r	.	.	.	8r
8E	8r	8r	8r	8f#
=64	=64	=64	=64	=64
8AA	8G#	8c#	8e	8f#
8r	8r	8r	8r	4g#
8AAL	8G#L	8c#L	8eL	.
8AAJ	8G#J	8c#J	8eJ	8r
8r	8r	8r	8r	2r
8AA	8G#	8c#	8e	.
8r	8r	8r	8r	.
8AA	8G#	8c#	8e	.
=65	=65	=65	=65	=65
8r	8r	8r	8r	1r
8AA	8G#	8c#	8e	.
8r	8r	8r	8r	.
8BB	8B	8d#	8f#	.
8r	8r	8r	8r	.
8BB	8B	8d#	8f#	.
8r	8r	8r	8r	.
8BB	[8G#	[8c#	[8f#	.
=66	=66	=66	=66	=66
8r	8G#L]	8c#L]	8f#L]	1r
8C#L	8G#	8c#	8f#	.
8C#J	8G#	8c#	8f#	.
8r	8G#J	8c#J	8eJ	.
8C#	4G#	4c#	4f#	.
8r	.	.	.	.
8C#L	8r	8r	8r	.
8C#J	[8G#	[8c#	[8f#	.
=67	=67	=67	=67	=67
8r	8G#L]	8c#L]	8f#L]	4r
8C#	8G#	8c#	8f#	.
8r	8G#	8c#	8f#	4r
8E	8G#J	8c#J	8eJ	.
8r	4G#	4c#	4f#	4r
8E	.	.	.	.
8r	4r	4r	4r	8r
8E	.	.	.	8f#
=68	=68	=68	=68	=68
8AA	8G#	8c#	8e	8f#
8r	8r	8r	8r	4g#
8AAL	8G#L	8c#L	8eL	.
8AAJ	8G#J	8c#J	8eJ	8r
8r	8r	8r	8r	2r
8AA	8G#	8c#	8e	.
8r	8r	8r	8r	.
8AA	8G#	8c#	8e	.
=69	=69	=69	=69	=69
8r	8r	8r	8r	4r
8AA	8G#	8c#	8e	.
8r	8r	8r	8r	4r
8BB	8B	8d#	8f#	.
8r	8r	8r	8r	4r
8BB	8B	8d#	8f#	.
8r	8r	8r	8r	8r
8C#	8c#	8e	8g#	8f#
=70	=70	=70	=70	=70
8r	8r	8r	8r	8f#
8C#L	8c#L	8eL	8g#L	4g#
8C#J	8c#J	8eJ	8g#J	.
8r	8r	8r	8r	8r
8C#	8c#	8e	8g#	2r
8r	8r	8r	8r	.
8C#L	8EL	8c#L	8eL	.
8C#J	[8EJ	[8c#J	[8bJ	.
=71	=71	=71	=71	=71
8r	8EL]	8c#L]	8bL]	4r
8C#	8A	8c#	8a	.
8r	8G#	8c#	8g#	4r
8E	8AJ	8c#J	8aJ	.
8r	4.G#	4.c#	4.g#	4r
8E	.	.	.	.
8r	.	.	.	8r
8E	8r	8r	8r	8f#
=72	=72	=72	=72	=72
8AA	8G#	8c#	8e	8f#
8r	8r	8r	8r	4g#
8AAL	8G#L	8c#L	8eL	.
8AAJ	8G#J	8c#J	8eJ	8r
8r	8r	8r	8r	2r
8AA	8G#	8c#	8e	.
8r	8r	8r	8r	.
8AA	8G#	8c#	8e	.
=73	=73	=73	=73	=73
8r	8r	8r	8r	1r
8AA	8G#	8c#	8e	.
8r	8r	8r	8r	.
8BB	8B	8d#	8f#	.
8r	8r	8r	8r	.
8BB	8B	8d#	8f#	.
8r	8r	8r	8r	.
8BB	[8E	[8c#	[8b	.
=74	=74	=74	=74	=74
8r	8EL]	8c#L]	8bL]	1r
8C#L	8A	8c#	8a	.
8C#J	8G#	8c#	8g#	.
8r	8AJ	8c#J	8aJ	.
8C#	4G#	4c#	4g#	.
8r	.	.	.	.
8C#L	8r	8r	8r	.
8C#J	[8E	[8c#	[8b	.
=75	=75	=75	=75	=75
4r	8EL]	8c#L]	8bL]	1r
.	8A	8c#	8a	.
8r	8G#	8c#	8g#	.
8E	8AJ	8c#J	8aJ	.
8r	4G#	4c#	4g#	.
8E	.	.	.	.
4GG#	8F#L	8f#L	8f#L	.
.	8EJ	8eJ	8eJ	.
=76	=76	=76	=76	=76
8AA	8A	8B	8e	4E
8r	8r	8r	8r	.
8AAL	8AL	8BL	8eL	8EL
8AAJ	8AJ	8BJ	8eJ	8EJ
8r	8r	8r	8r	8EL
8AA	8A	8B	8e	8F#J
8r	8r	8r	8r	[4F#
8AA	8A	8B	8e	.
=77	=77	=77	=77	=77
8r	8r	8r	8r	2F#]
8AA	8A	8B	8e	.
8r	8r	8r	8r	.
8BB	8B	8d#	8f#	.
8r	8r	8r	8r	8EL
8BB	8B	8d#	8f#	8F#J
8r	8r	8r	8r	4F#
8BB	8c#	8e	8g#	.
=78	=78	=78	=78	=78
8r	8r	8r	8r	4F#
8C#L	8c#L	8eL	8g#L	.
8C#J	8c#J	8eJ	8g#J	8F#L
8r	8r	8r	8r	8EJ
8C#	8c#	8e	8g#	8F#L
8r	8r	8r	8r	8G#
8C#L	8c#L	8eL	8g#L	8A
8C#J	8c#J	8eJ	8g#J	[8G#J
=79	=79	=79	=79	=79
8r	8r	8r	8r	2G#]
8C#	8c#	8e	8g#	.
8r	8r	8r	8r	.
8E	8B	8g#	8b	.
8r	8r	8r	8r	8EL
8E	8B	8g#	8b	8EJ
8r	8r	8r	8r	[4B
8E	8B	8g#	8b	.
=80	=80	=80	=80	=80
8AA	8A	8B	8e	4B]
8r	8r	8r	8r	.
8AAL	8AL	8BL	8eL	8A
8AAJ	8AJ	8BJ	8eJ	4.G#
8r	8r	8r	8r	.
8AA	8A	8B	8e	.
8r	8r	8r	8r	8AL
8AA	8A	8B	8e	[8G#J
=81	=81	=81	=81	=81
8r	8r	8r	8r	4G#]
8AA	8A	8B	8e	.
8r	8r	8r	8r	8F#
8BB	8B	8d#	8f#	4.E
8r	8r	8r	8r	.
8BB	8B	8d#	8f#	.
8r	8r	8r	8r	8EL
8BB	8c#	8e	8g#	[8BJ
=82	=82	=82	=82	=82
8r	8r	8r	8r	4B]
8C#L	8c#L	8eL	8g#L	.
8C#J	8c#J	8eJ	8g#J	8A
8r	8r	8r	8r	4.G#
8C#	8c#	8e	8g#	.
8r	8r	8r	8r	.
8C#L	8c#L	8eL	8g#L	8AL
8C#J	8c#J	8eJ	8g#J	8G#J
=83	=83	=83	=83	=83
8r	8r	8r	8r	8r
8C#	8c#	8e	8g#	4F#
8r	8r	8r	8r	.
8E	8B	8g#	8b	8r
8r	8r	8r	8r	2r
8E	8B	8g#	8b	.
8r	8r	8r	8r	.
8E	8B	8g#	8b	.
=84	=84	=84	=84	=84
1AA	8A	8B	8e	4E
.	8r	8r	8r	.
.	8AL	8BL	8eL	8EL
.	8AJ	8BJ	8eJ	8EJ
.	8r	8r	8r	8EL
.	8A	8B	8e	8F#J
.	8r	8r	8r	[4F#
.	8A	8B	8e	.
=85	=85	=85	=85	=85
1BB	8r	8r	8r	2F#]
.	8A	8B	8e	.
.	8r	8r	8r	.
.	8B	8d#	8f#	.
.	8r	8r	8r	8EL
.	8B	8d#	8f#	8F#J
.	8r	8r	8r	4F#
.	8c#	8e	8g#	.
=86	=86	=86	=86	=86
1GG#	8r	8r	8r	4F#
.	8c#L	8eL	8g#L	.
.	8c#J	8eJ	8g#J	8F#L
.	8r	8r	8r	8EJ
.	8c#	8e	8g#	8F#L
.	8r	8r	8r	8G#
.	8c#L	8eL	8g#L	8A
.	8c#J	8eJ	8g#J	[8G#J
=87	=87	=87	=87	=87
1C#	8r	8r	8r	2G#]
.	8c#	8e	8g#	.
.	8r	8r	8r	.
.	8B	8g#	8b	.
.	8r	8r	8r	8EL
.	8B	8g#	8b	8EJ
.	8r	8r	8r	[4B
.	8B	8g#	8b	.
=88	=88	=88	=88	=88
1AA	8A	8B	8e	4B]
.	8r	8r	8r	.
.	8AL	8BL	8eL	8A
.	8AJ	8BJ	8eJ	4.G#
.	8r	8r	8r	.
.	8A	8B	8e	.
.	8r	8r	8r	8AL
.	8A	8B	8e	8G#J
=89	=89	=89	=89	=89
1BB	8r	8r	8r	8G#
.	8A	8B	8e	4F#
.	8r	8r	8r	.
.	8B	8d#	8f#	8r
.	8r	8r	8r	8EL
.	8B	8d#	8f#	8E
.	8r	8r	8r	8F#
.	8c#	8e	8g#	[8G#J
=90	=90	=90	=90	=90
1C#	8r	8r	8r	4G#]
.	8c#L	8eL	8g#L	.
.	8c#J	8eJ	8g#J	8F#
.	8r	8r	8r	4.E
.	8c#	8e	8g#	.
.	8r	8r	8r	.
.	8c#L	8eL	8g#L	8F#L
.	8c#J	8eJ	8g#J	8C#J
=91	=91	=91	=91	=91
4.C#	8r	8r	8r	8r
.	8c#	8e	8g#	4E
.	8r	8r	8r	.
[8E	8B	8g#	8b	8E
2E]	8r	8r	8r	8F#L
.	8B	8g#	8b	8EJ
.	8r	8r	8r	4E
.	8B	8g#	8b	.
=92	=92	=92	=92	=92
1AA	8B	8e	8b	1r
.	8r	8r	8r	.
.	8BL	8eL	8bL	.
.	8BJ	8eJ	8bJ	.
.	8r	8r	8r	.
.	8B	8e	8b	.
.	8r	8r	8r	.
.	8B	8e	8b	.
=93	=93	=93	=93	=93
1BB	8r	8r	8r	1r
.	8B	8e	8b	.
.	8r	8r	8r	.
.	8d#	8f#	8dd#	.
.	8r	8r	8r	.
.	8d#	8f#	8dd#	.
.	8r	8r	8r	.
.	8e	8g#	8ee	.
=94	=94	=94	=94	=94
1GG#	8r	8r	8r	1r
.	8eL	8g#L	8eeL	.
.	8eJ	8g#J	8eeJ	.
.	8r	8r	8r	.
.	8e	8g#	8ee	.
.	8r	8r	8r	.
.	8eL	8g#L	8eeL	.
.	8eJ	8g#J	8eeJ	.
=95	=95	=95	=95	=95
1C#	8r	8r	8r	1r
.	8e	8g#	8ee	.
.	8r	8r	8r	.
.	8e	8g#	8b	.
.	8r	8r	8r	.
.	8e	8g#	8b	.
.	8r	8r	8r	.
.	8e	8g#	8b	.
=96	=96	=96	=96	=96
1AA	8B	8e	8b	1r
.	8r	8r	8r	.
.	8BL	8eL	8bL	.
.	8BJ	8eJ	8bJ	.
.	8r	8r	8r	.
.	8B	8e	8b	.
.	8r	8r	8r	.
.	8B	8e	8b	.
=97	=97	=97	=97	=97
1BB	8r	8r	8r	1r
.	8B	8e	8b	.
.	8r	8r	8r	.
.	8d#	8f#	8dd#	.
.	8r	8r	8r	.
.	8d#	8f#	8dd#	.
.	8r	8r	8r	.
.	8e	8g#	8ee	.
=98	=98	=98	=98	=98
1GG#	8r	8r	8r	1r
.	8eL	8g#L	8eeL	.
.	8eJ	8g#J	8eeJ	.
.	8r	8r	8r	.
.	8e	8g#	8ee	.
.	8r	8r	8r	.
.	8eL	8g#L	8eeL	.
.	8eJ	8g#J	8eeJ	.
=99	=99	=99	=99	=99
4.C#	8r	8r	8r	1r
.	8e	8g#	8ee	.
.	8r	8r	8r	.
[8E	8e	8g#	8b	.
2E]	8r	8r	8r	.
.	8e	8g#	8b	.
.	8r	8r	8r	.
.	8e	8g#	8b	.
=100	=100	=100	=100	=100
[1FF#	2.c#	2.e	4e	4B
.	.	.	4g#	4g#
.	.	.	4e	4B
.	[4d#	[4f#	[4e	[4B
=101	=101	=101	=101	=101
2.FF#]	2.d#]	2.f#]	4e]	4B]
.	.	.	4g#	4g#
.	.	.	4f#	4B
8FF#L	[4B	[4d#	[4f#	[4B
8GGnJ	.	.	.	.
=102	=102	=102	=102	=102
[1GG#	1B]	1d#]	4f#]	4B]
.	.	.	4g#	4g#
.	.	.	4d#	4B
.	.	.	4d#	4B
=103	=103	=103	=103	=103
1GG#]	1E	1g#	4e	4B
.	.	.	4e	4A
.	.	.	4e	4G#
.	.	.	4f#	4A
=104	=104	=104	=104	=104
[1AA	1c#	1e	4e	4B
.	.	.	4g#	4g#
.	.	.	4e	4B
.	.	.	[4e	[4B
=105	=105	=105	=105	=105
2.AA]	1d#	1f#	4e]	4B]
.	.	.	4g#	4g#
.	.	.	4f#	4f#
8r	.	.	4g#	4g#
8EE	.	.	.	.
=106	=106	=106	=106	=106
4AA	8r	8r	8r	1r
.	8c#L	8eL	8g#L	.
8AAL	8c#J	8eJ	8g#J	.
[8AAJ	8r	8r	8r	.
8AA]	8c#	8e	8g#	.
4AA	8r	8r	8r	.
.	8c#L	8eL	8g#L	.
8r	8c#J	8eJ	8g#J	.
=107	=107	=107	=107	=107
1E	8r	8r	8r	1r
.	8c#	8e	8g#	.
.	8r	8r	8r	.
.	8B	8g#	8b	.
.	8r	8r	8r	.
.	8B	8g#	8b	.
.	8r	8r	8r	.
.	8B	8g#	8b	.
=108	=108	=108	=108	=108
[1FF#	4B	4g#	4e	4B
.	4r	4r	4g#	4g#
.	2c#	2e	4e	4B
.	.	.	[4e	[4B
=109	=109	=109	=109	=109
2.FF#]	1d#	1f#	4e]	4B]
.	.	.	4g#	4g#
.	.	.	4f#	4B
8FF#L	.	.	[4f#	[4B
8GGnJ	.	.	.	.
=110	=110	=110	=110	=110
[1GG#	1B	1d#	4f#]	4B]
.	.	.	4g#	4g#
.	.	.	4d#	4B
.	.	.	4d#	4B
=111	=111	=111	=111	=111
1GG#]	1E	1g#	4e	4B
.	.	.	4e	4A
.	.	.	4e	4G#
.	.	.	4f#	4A
=112	=112	=112	=112	=112
[1AA	1c#	1e	4e	4B
.	.	.	4g#	4g#
.	.	.	4e	4B
.	.	.	[4e	[4B
=113	=113	=113	=113	=113
2.AA]	1d#	1f#	4e]	4B]
.	.	.	4g#	4g#
.	.	.	4f#	4f#
8r	.	.	[4e	[4e
8EE	.	.	.	.
=114	=114	=114	=114	=114
4AA	2A	2c#	2e]	2e]
8AAL	.	.	.	.
[8AAJ	.	.	.	.
8AA]	4r	4r	4r	4r
4AA	.	.	.	.
.	8r	8r	8r	8r
8r	[8B	[8d#	[8g#	[8g#
=115	=115	=115	=115	=115
16GG#KL	2B]	2d#]	2g#]	2g#]
8GG#	.	.	.	.
16GG#Jk	.	.	.	.
8GG#L	.	.	.	.
16GG#L	.	.	.	.
16GG#JJ	.	.	.	.
8GG#L	2r	2r	2r	4r
8GG#J	.	.	.	.
4GG#	.	.	.	8r
.	.	.	.	8f#
=116	=116	=116	=116	=116
8AA	8G#	8c#	8e	8f#
8r	8r	8r	8r	4g#
8AAL	8G#L	8c#L	8eL	.
8AAJ	8G#J	8c#J	8eJ	8r
8r	8r	8r	8r	2r
8AA	8G#	8c#	8e	.
8r	8r	8r	8r	.
8AA	8G#	8c#	8e	.
=117	=117	=117	=117	=117
8r	8r	8r	8r	4r
8AA	8G#	8c#	8e	.
8r	8r	8r	8r	4r
8BB	8B	8d#	8f#	.
8r	8r	8r	8r	4r
8BB	8B	8d#	8f#	.
8r	8r	8r	8r	8r
8C#	8c#	8e	8g#	8f#
=118	=118	=118	=118	=118
8r	8r	8r	8r	8f#
8C#L	8c#L	8eL	8g#L	4g#
8C#J	8c#J	8eJ	8g#J	.
8r	8r	8r	8r	8r
8C#	8c#	8e	8g#	2r
8r	8r	8r	8r	.
8C#L	8EL	8c#L	8eL	.
8C#J	[8EJ	[8c#J	[8bJ	.
=119	=119	=119	=119	=119
8r	8EL]	8c#L]	8bL]	4r
8C#	8A	8c#	8a	.
8r	8G#	8c#	8g#	4r
8E	8AJ	8c#J	8aJ	.
8r	4.G#	4.c#	4.g#	4r
8E	.	.	.	.
8r	.	.	.	8r
8E	8r	8r	8r	8f#
=120	=120	=120	=120	=120
8AA	8G#	8c#	8e	8f#
8r	8r	8r	8r	4g#
8AAL	8G#L	8c#L	8eL	.
8AAJ	8G#J	8c#J	8eJ	8r
8r	8r	8r	8r	2r
8AA	8G#	8c#	8e	.
8r	8r	8r	8r	.
8AA	8G#	8c#	8e	.
=121	=121	=121	=121	=121
8r	8r	8r	8r	1r
8AA	8G#	8c#	8e	.
8r	8r	8r	8r	.
8BB	8B	8d#	8f#	.
8r	8r	8r	8r	.
8BB	8B	8d#	8f#	.
8r	8r	8r	8r	.
8BB	[8G#	[8c#	[8f#	.
=122	=122	=122	=122	=122
1C#	8G#L]	8c#L]	8f#L]	1r
.	8G#	8c#	8f#	.
.	8G#	8c#	8f#	.
.	8G#J	8c#J	8eJ	.
.	4G#	4c#	4f#	.
.	8r	8r	8r	.
.	[8G#	[8c#	[8f#	.
=123	=123	=123	=123	=123
2BB	8G#L]	8c#L]	8f#L]	4r
.	8G#	8c#	8f#	.
.	8G#	8c#	8f#	4r
.	8G#J	8c#J	8eJ	.
2E	4G#	4c#	4f#	4r
.	4r	4r	4r	8r
.	.	.	.	8f#
=124	=124	=124	=124	=124
1AA	1G#	1c#	1e	8f#
.	.	.	.	4g#
.	.	.	.	8r
.	.	.	.	2r
=125	=125	=125	=125	=125
2AA	1G#	1c#	1e	4r
.	.	.	.	4r
2BB	.	.	.	4r
.	.	.	.	8r
.	.	.	.	8f#
=126	=126	=126	=126	=126
1C#	2.G#	2.c#	2.e	8f#
.	.	.	.	4g#
.	.	.	.	8r
.	.	.	.	2r
.	8EL	8c#L	8eL	.
.	[8EJ	[8c#J	[8bJ	.
=127	=127	=127	=127	=127
2C#	8EL]	8c#L]	8bL]	4r
.	8A	8c#	8a	.
.	8G#	8c#	8g#	4r
.	8AJ	8c#J	8aJ	.
2E	4.G#	4.c#	4.g#	4r
.	.	.	.	8r
.	8r	8r	8r	8f#
=128	=128	=128	=128	=128
1AA	1G#	1c#	1e	8f#
.	.	.	.	4g#
.	.	.	.	8r
.	.	.	.	2r
=129	=129	=129	=129	=129
2AA	2.G#	2.c#	2.e	1r
2BB	.	.	.	.
.	8r	8r	8r	.
.	[8E	[8c#	[8b	.
=130	=130	=130	=130	=130
1C#	8EL]	8c#L]	8bL]	1r
.	8A	8c#	8a	.
.	8G#	8c#	8g#	.
.	8AJ	8c#J	8aJ	.
.	4G#	4c#	4g#	.
.	8r	8r	8r	.
.	[8B	[8b	[8b	.
=131	=131	=131	=131	=131
1r	8BL]	8bL]	8bL]	1r
.	8A	8a	8a	.
.	8G#	8g#	8g#	.
.	8AJ	8aJ	8aJ	.
.	4G#	4g#	4g#	.
.	8F#L	8f#L	8f#L	.
.	8EJ	8eJ	8eJ	.
=132	=132	=132	=132	=132
16GG#KL	4r	4r	4r	4r
8GG#	.	.	.	.
16GG#Jk	.	.	.	.
8GG#L	4r	4r	4r	4r
16GG#L	.	.	.	.
16GG#JJ	.	.	.	.
8GG#L	4r	4r	4r	4r
8GG#J	.	.	.	.
4GG#	8EL	8eL	8eL	8eL
.	8F#J	8f#J	8f#J	8f#J
=133	=133	=133	=133	=133
8AA	4G#	4c#	4e	4g#
8r	.	.	.	.
8AAL	4G#	4c#	4e	4g#
8AAJ	.	.	.	.
8r	8G#L	8c#L	8eL	8g#L
8AA	8G#	8c#	8e	8g#
8r	8G#	8c#	8e	8g#
8AA	8G#J	8c#J	8eJ	8g#J
=134	=134	=134	=134	=134
8r	4G#	4c#	4e	4g#
8AA	.	.	.	.
8r	4F#	4c#	4c#	4f#
8BB	.	.	.	.
8r	8F#L	8BL	8f#L	8f#L
8BB	8F#	8B	8f#	8f#
8r	8F#	8B	8f#	8f#
8BB	[8F#J	[8BJ	[8f#J	[8f#J
=135	=135	=135	=135	=135
8r	8F#L]	8BL]	8f#L]	8f#L]
8C#L	8F#	8c#	8f#	8f#
8C#J	8F#	8c#	8f#	8f#
8r	8EJ	8eJ	8eJ	8eJ
8C#	4F#	4c#	4f#	4f#
8r	.	.	.	.
8C#L	8F#L	8c#L	8f#L	8f#L
8C#J	8F#J	8c#J	8f#J	8f#J
=136	=136	=136	=136	=136
8r	4F#	4c#	4f#	4f#
8C#	.	.	.	.
8r	4E	4c#	4e	4e
8E	.	.	.	.
8r	8BBL	8eL	8BL	8BL
8E	8BB	8e	8B	8B
8r	8BB	8e	8B	8B
8E	[8G#J	[8BJ	[8g#J	[8g#J
=137	=137	=137	=137	=137
8AA	8G#L]	8BL]	8g#L]	8g#L]
8r	8G#	8c#	8e	8g#
8AAL	8G#	8c#	8e	8g#
8AAJ	8G#J	8c#J	8eJ	8g#J
8r	4G#	4c#	4e	4g#
8AA	.	.	.	.
8r	8G#L	8c#L	8eL	8g#L
8AA	8G#J	8c#J	8eJ	8g#J
=138	=138	=138	=138	=138
8r	4G#	4c#	4e	4g#
8AA	.	.	.	.
8r	4F#	4B	4f#	4f#
8BB	.	.	.	.
8r	8F#L	8BL	8f#L	8f#L
8BB	8F#	8B	8f#	8f#
8r	8F#	8B	8f#	8f#
8BB	[8BJ	[8d#J	[8f#J	[8bJ
=139	=139	=139	=139	=139
8r	8BL]	8d#L]	8f#L]	8bL]
8C#L	8A	8e	8a	8a
8C#J	8G#	8e	8g#	8g#
8r	8AJ	8eJ	8aJ	8aJ
8C#	4G#	4e	4g#	4g#
8r	.	.	.	.
8C#L	8r	8r	8r	8r
8C#J	[8B	[8d#	[8f#	[8b
=140	=140	=140	=140	=140
8r	8BL]	8d#L]	8f#L]	8bL]
8C#	8A	8e	8a	8a
8r	8G#	8e	8g#	8g#
8E	8AJ	8eJ	8aJ	8aJ
8r	4G#	4e	4g#	4g#
8E	.	.	.	.
8r	8EL	8eL	8eL	8eL
8E	8F#J	8f#J	8f#J	8f#J
=141	=141	=141	=141	=141
8AA	4G#	4c#	4e	4g#
8r	.	.	.	.
8AAL	4G#	4c#	4e	4g#
8AAJ	.	.	.	.
8r	8G#L	8c#L	8eL	8g#L
8AA	8G#	8c#	8e	8g#
8r	8G#	8c#	8e	8g#
8AA	8G#J	8c#J	8eJ	8g#J
=142	=142	=142	=142	=142
8r	4G#	4c#	4e	4g#
8AA	.	.	.	.
8r	4F#	4c#	4c#	4f#
8BB	.	.	.	.
8r	8F#L	8BL	8f#L	8f#L
8BB	8F#	8B	8f#	8f#
8r	8F#	8B	8f#	8f#
8BB	[8F#J	[8BJ	[8f#J	[8f#J
=143	=143	=143	=143	=143
8r	8F#L]	8BL]	8f#L]	8f#L]
8C#L	8F#	8c#	8f#	8f#
8C#J	8F#	8c#	8f#	8f#
8r	8EJ	8eJ	8eJ	8eJ
8C#	4F#	4c#	4f#	4f#
8r	.	.	.	.
8C#L	8F#L	8c#L	8f#L	8f#L
8C#J	8F#J	8c#J	8f#J	8f#J
=144	=144	=144	=144	=144
8r	4F#	4c#	4f#	4f#
8C#	.	.	.	.
8r	4E	4c#	4e	4e
8E	.	.	.	.
8r	8BBL	8eL	8BL	8BL
8E	8BB	8e	8B	8B
8r	8BB	8e	8B	8B
8E	[8G#J	[8BJ	[8g#J	[8g#J
=145	=145	=145	=145	=145
8AA	8G#L]	8BL]	8g#L]	8g#L]
8r	8G#	8c#	8e	8g#
8AAL	8G#	8c#	8e	8g#
8AAJ	8G#J	8c#J	8eJ	8g#J
8r	4G#	4c#	4e	4g#
8AA	.	.	.	.
8r	8G#L	8c#L	8eL	8g#L
8AA	8G#J	8c#J	8eJ	8g#J
=146	=146	=146	=146	=146
8r	4G#	4c#	4e	4g#
8AA	.	.	.	.
8r	4F#	4B	4f#	4f#
8BB	.	.	.	.
8r	8F#L	8BL	8f#L	8f#L
8BB	8F#	8B	8f#	8f#
8r	8F#	8B	8f#	8f#
8BB	[8BJ	[8d#J	[8f#J	[8bJ
=147	=147	=147	=147	=147
8r	8BL]	8d#L]	8f#L]	8bL]
8C#L	8A	8e	8a	8a
8C#J	8G#	8e	8g#	8g#
8r	8AJ	8eJ	8aJ	8aJ
8C#	4G#	4e	4g#	4g#
8r	.	.	.	.
8C#L	8r	8r	8r	8r
8C#J	[8B	[8d#	[8f#	[8b
=148	=148	=148	=148	=148
8r	8BL]	8d#L]	8f#L]	8bL]
8C#	8A	8e	8a	8a
8r	8G#	8e	8g#	8g#
8E	8AJ	8eJ	8aJ	8aJ
8r	4G#	4e	4g#	4g#
8E	.	.	.	.
8r	8EL	8eL	8eL	8eL
8E	8F#J	8f#J	8f#J	8f#J
=149	=149	=149	=149	=149
8AA	4G#	4c#	4e	4g#
8r	.	.	.	.
8AAL	4G#	4c#	4e	4g#
8AAJ	.	.	.	.
8r	8G#L	8c#L	8eL	8g#L
8AA	8G#	8c#	8e	8g#
8r	8G#	8c#	8e	8g#
8AA	8G#J	8c#J	8eJ	8g#J
=150	=150	=150	=150	=150
8r	4G#	4c#	4e	4g#
8AA	.	.	.	.
8r	4F#	4c#	4c#	4f#
8BB	.	.	.	.
8r	8F#L	8BL	8f#L	8f#L
8BB	8F#	8B	8f#	8f#
8r	8F#	8B	8f#	8f#
8BB	[8F#J	[8BJ	[8f#J	[8f#J
=151	=151	=151	=151	=151
8r	8F#L]	8BL]	8f#L]	8f#L]
8C#L	8F#	8c#	8f#	8f#
8C#J	8F#	8c#	8f#	8f#
8r	8EJ	8eJ	8eJ	8eJ
8C#	4F#	4c#	4f#	4f#
8r	.	.	.	.
8C#L	8F#L	8c#L	8f#L	8f#L
8C#J	8F#J	8c#J	8f#J	8f#J
=152	=152	=152	=152	=152
8r	4F#	4c#	4f#	4f#
8C#	.	.	.	.
8r	4E	4c#	4e	4e
8E	.	.	.	.
8r	8BBL	8eL	8BL	8BL
8E	8BB	8e	8B	8B
8r	8BB	8e	8B	8B
8E	[8G#J	[8BJ	[8g#J	[8g#J
=153	=153	=153	=153	=153
8AA	8G#L]	8BL]	8g#L]	8g#L]
8r	8G#	8c#	8e	8g#
8AAL	8G#	8c#	8e	8g#
8AAJ	8G#J	8c#J	8eJ	8g#J
8r	4G#	4c#	4e	4g#
8AA	.	.	.	.
8r	8G#L	8c#L	8eL	8g#L
8AA	8G#J	8c#J	8eJ	8g#J
=154	=154	=154	=154	=154
8r	4G#	4c#	4e	4g#
8AA	.	.	.	.
8r	4F#	4B	4f#	4f#
8BB	.	.	.	.
8r	8F#L	8BL	8f#L	8f#L
8BB	8F#	8B	8f#	8f#
8r	8F#	8B	8f#	8f#
8BB	[8BJ	[8d#J	[8f#J	[8bJ
=155	=155	=155	=155	=155
8r	8BL]	8d#L]	8f#L]	8bL]
8C#L	8A	8e	8a	8a
8C#J	8G#	8e	8g#	8g#
8r	8AJ	8eJ	8aJ	8aJ
8C#	4G#	4e	4g#	4g#
8r	.	.	.	.
8C#L	8r	8r	8r	8r
8C#J	[8B	[8d#	[8f#	[8b
=156	=156	=156	=156	=156
8r	8BL]	8d#L]	8f#L]	8bL]
8C#	8A	8e	8a	8a
8r	8G#	8e	8g#	8g#
8E	8AJ	8eJ	8aJ	8aJ
8r	4G#	4e	4g#	4g#
8E	.	.	.	.
8r	8EL	8eL	8eL	8eL
8E	8F#J	8f#J	8f#J	8f#J
=157	=157	=157	=157	=157
8AA	4G#	4g#	4g#	4g#
8r	.	.	.	.
8AAL	4G#	4g#	4g#	4g#
8AAJ	.	.	.	.
8r	8G#L	8g#L	8g#L	8g#L
8AA	8G#	8g#	8g#	8g#
8r	8G#	8g#	8g#	8g#
8AA	8G#J	8g#J	8g#J	8g#J
=158	=158	=158	=158	=158
8r	4G#	4g#	4g#	4g#
8AA	.	.	.	.
8r	4F#	4f#	4f#	4f#
8BB	.	.	.	.
8r	8F#L	8f#L	8f#L	8f#L
8BB	8F#	8f#	8f#	8f#
8r	8F#	8f#	8f#	8f#
8BB	[8F#J	[8f#J	[8f#J	[8f#J
=159	=159	=159	=159	=159
8r	8F#L]	8f#L]	8f#L]	8f#L]
8C#L	8F#	8f#	8f#	8f#
8C#J	8F#	8f#	8f#	8f#
8r	8EJ	8eJ	8eJ	8eJ
8C#	4F#	4f#	4f#	4f#
8r	.	.	.	.
8C#L	8F#L	8f#L	8f#L	8f#L
8C#J	8F#J	8f#J	8f#J	8f#J
=160	=160	=160	=160	=160
8r	4F#	4f#	4f#	4f#
8C#	.	.	.	.
8r	4E	4e	4e	4e
8E	.	.	.	.
8r	8BBL	8BL	8BL	8BL
8E	8BB	8B	8B	8B
8r	8BB	8B	8B	8B
8E	[8G#J	[8g#J	[8g#J	[8g#J
=161	=161	=161	=161	=161
8AA	8G#L]	8g#L]	8g#L]	8g#L]
8r	8G#	8g#	8g#	8g#
8AAL	8G#	8g#	8g#	8g#
8AAJ	8G#J	8g#J	8g#J	8g#J
8r	4G#	4g#	4g#	4g#
8AA	.	.	.	.
8r	8G#L	8g#L	8g#L	8g#L
8AA	8G#J	8g#J	8g#J	8g#J
=162	=162	=162	=162	=162
8r	4G#	4g#	4g#	4g#
8AA	.	.	.	.
8r	4F#	4f#	4f#	4f#
8BB	.	.	.	.
8r	8F#L	8f#L	8f#L	8f#L
8BB	8F#	8f#	8f#	8f#
8r	8F#	8f#	8f#	8f#
8BB	[8BJ	[8bJ	[8bJ	[8bJ
=163	=163	=163	=163	=163
8r	8BL]	8bL]	8bL]	8bL]
8C#L	8A	8a	8a	8a
8C#J	8G#	8g#	8g#	8g#
8r	8AJ	8aJ	8aJ	8aJ
8C#	4G#	4g#	4g#	4g#
8r	.	.	.	.
8C#L	8r	8r	8r	8r
8C#J	[8B	[8b	[8b	[8b
=164	=164	=164	=164	=164
8r	8BL]	8bL]	8bL]	8bL]
8C#	8A	8a	8a	8a
8r	8G#	8g#	8g#	8g#
8E	8AJ	8aJ	8aJ	8aJ
8r	4G#	4g#	4g#	4g#
8E	.	.	.	.
8r	4r	4r	4r	8eL
8E	.	.	.	8f#J
=165	=165	=165	=165	=165
8AA	8c#	8e	8g#	4g#
8r	8r	8r	8r	.
8AAL	8c#L	8eL	8g#L	4g#
8AAJ	8c#J	8eJ	8g#J	.
8r	8r	8r	8r	8g#L
8AA	8c#	8e	8g#	8g#
8r	8r	8r	8r	8g#
8AA	8c#	8e	8g#	8g#J
=166	=166	=166	=166	=166
8r	8r	8r	8r	4g#
8AA	8c#	8e	8g#	.
8r	8r	8r	8r	4f#
8BB	8d#	8f#	8b	.
8r	8r	8r	8r	8f#L
8BB	8d#	8f#	8b	8f#
8r	8r	8r	8r	8f#
8BB	8e	8g#	8cc#	[8f#J
=167	=167	=167	=167	=167
8r	8r	8r	8r	8f#L]
8C#L	8eL	8g#L	8cc#L	8f#
8C#J	8eJ	8g#J	8cc#J	8f#
8r	8r	8r	8r	8eJ
8C#	8e	8g#	8cc#	4f#
8r	8r	8r	8r	.
8C#L	8eL	8g#L	8cc#L	8f#L
8C#J	8eJ	8g#J	8cc#J	8f#J
=168	=168	=168	=168	=168
8r	8r	8r	8r	4f#
8C#	8e	8g#	8cc#	.
8r	8r	8r	8r	4e
8E	8g#	8b	8ee	.
8r	8r	8r	8r	8BL
8E	8g#	8b	8ee	8B
8r	8r	8r	8r	8B
8E	8g#	8b	8ee	[8g#J
=169	=169	=169	=169	=169
8AA	8c#	8e	8g#	8g#L]
8r	8r	8r	8r	8g#
8AAL	8c#L	8eL	8g#L	8g#
8AAJ	8c#J	8eJ	8g#J	8g#J
8r	8r	8r	8r	4g#
8AA	8c#	8e	8g#	.
8r	8r	8r	8r	8g#L
8AA	8c#	8e	8g#	8g#J
=170	=170	=170	=170	=170
8r	8r	8r	8r	4g#
8AA	8c#	8e	8g#	.
8r	8r	8r	8r	4f#
8BB	8d#	8f#	8b	.
8r	8r	8r	8r	8f#L
8BB	8d#	8f#	8b	8f#
8r	8r	8r	8r	8f#
8BB	8e	8g#	8cc#	[8bJ
=171	=171	=171	=171	=171
8r	8r	8r	8r	8bL]
8C#L	8eL	8g#L	8cc#L	8a
8C#J	8eJ	8g#J	8cc#J	8g#
8r	8r	8r	8r	8aJ
8C#	8e	8g#	8cc#	4g#
8r	8r	8r	8r	.
8C#L	8eL	8g#L	8cc#L	8r
8C#J	8eJ	8g#J	8cc#J	[8b
=172	=172	=172	=172	=172
8r	8r	8r	8r	8bL]
8C#	8e	8g#	8cc#	8a
8r	8r	8r	8r	8g#
8E	8g#	8b	8ee	8aJ
8r	8r	8r	8r	4g#
8E	8g#	8b	8ee	.
8r	8r	8r	8r	8eL
8E	8g#	8b	8ee	8f#J
=173	=173	=173	=173	=173
8AA	8c#	8e	8g#	4g#
8r	8r	8r	8r	.
8AAL	8c#L	8eL	8g#L	4g#
8AAJ	8c#J	8eJ	8g#J	.
8r	8r	8r	8r	8g#L
8AA	8c#	8e	8g#	8g#
8r	8r	8r	8r	8g#
8AA	8c#	8e	8g#	8g#J
=174	=174	=174	=174	=174
8r	8r	8r	8r	4g#
8AA	8c#	8e	8g#	.
8r	8r	8r	8r	4f#
8BB	8d#	8f#	8b	.
8r	8r	8r	8r	8f#L
8BB	8d#	8f#	8b	8f#
8r	8r	8r	8r	8f#
8BB	8e	8g#	8cc#	[8f#J
=175	=175	=175	=175	=175
8r	8r	8r	8r	8f#L]
8C#L	8eL	8g#L	8cc#L	8f#
8C#J	8eJ	8g#J	8cc#J	8f#
8r	8r	8r	8r	8eJ
8C#	8e	8g#	8cc#	4f#
8r	8r	8r	8r	.
8C#L	8eL	8g#L	8cc#L	8f#L
8C#J	8eJ	8g#J	8cc#J	8f#J
=176	=176	=176	=176	=176
8r	8r	8r	8r	4f#
8C#	8e	8g#	8cc#	.
8r	8r	8r	8r	4e
8E	8g#	8b	8ee	.
8r	8r	8r	8r	8BL
8E	8g#	8b	8ee	8B
8r	8r	8r	8r	8B
8E	8g#	8b	8ee	[8g#J
=177	=177	=177	=177	=177
8AA	8c#	8e	8g#	8g#L]
8r	8r	8r	8r	8g#
8AAL	8c#L	8eL	8g#L	8g#
8AAJ	8c#J	8eJ	8g#J	8g#J
8r	8r	8r	8r	4g#
8AA	8c#	8e	8g#	.
8r	8r	8r	8r	8g#L
8AA	8c#	8e	8g#	8g#J
=178	=178	=178	=178	=178
8r	8r	8r	8r	4g#
8AA	8c#	8e	8g#	.
8r	8r	8r	8r	4f#
8BB	8d#	8f#	8b	.
8r	8r	8r	8r	8f#L
8BB	8d#	8f#	8b	8f#
8r	8r	8r	8r	8f#
8BB	8e	8g#	8cc#	[8bJ
=179	=179	=179	=179	=179
8r	8r	8r	8r	8bL]
8C#L	8eL	8g#L	8cc#L	8a
8C#J	8eJ	8g#J	8cc#J	8g#
8r	8r	8r	8r	8aJ
8C#	8e	8g#	8cc#	4g#
8r	8r	8r	8r	.
8r	8eL	8g#L	8cc#L	8r
[8B	8eJ	8g#J	8cc#J	[8b
=180	=180	=180	=180	=180
8BL]	8r	8r	8r	8bL]
8A	8e	8g#	8cc#	8a
8G#	8r	8r	8r	8g#
8AJ	8g#	8b	8ee	8aJ
4G#	8r	8r	8r	4g#
.	8g#	8b	8ee	.
8F#L	8r	8r	8r	8f#L
8EJ	8g#	8b	8ee	8eJ
==	==	==	==	==
*-	*-	*-	*-	*-
